X: 588
T: Captain Kelly's reel
C: anon.
O: Ireland
B: Francis O'Neill: "The Dance Music of Ireland" (1907) no. 588
R: Reel
Z: Transcribed by Frank Nordberg - http://www.musicaviva.com
F: http://www.musicaviva.com/abc/tunes/ireland/oneill-1001/oneill-1001-058
8.abc
m: Tn = (3n/o/n/
M: C|
L: 1/8
K: G
D|GBAF G2(ge)|dBAc BE-~E2|GBAF G2(ge)|dBcA (TBG)G2|G2 (ef) (3ggg (ge)|dBA
c BE-~E2|G2 (Bd) ({a}g)fge|dBABG2||
d2|g2 (bg) agbg|egdg egdf|g2 (bg) agbg|dgfa g2d2|g2 (bg) agbg|egdf egdf|g
afg efdf|(3efg (fa) gedB "_D.C." |]
W:
W:
W: From Musica Viva - http://www.musicaviva.com
W: the Internet center for free sheet music downloads.


